public/payments/crypto/dai.svg

<svg width="32" height="33" viewBox="0 0 32 33" fill="none" xmlns="http://www.w3.org/2000/svg">
<g clip-path="url(#clip0_1209_8085)">
<path d="M16 0.5C24.8374 0.5 32 7.66407 32 16.5C32 25.3374 24.8374 32.5 16 32.5C7.16407 32.5 0 25.3366 0 16.5C0 7.66407 7.16407 0.5 16 0.5Z" fill="#F5AC37"/>
<path d="M16.5898 17.6296H22.6695C22.7991 17.6296 22.8603 17.6296 22.8697 17.4597C22.9193 16.8412 22.9193 16.2191 22.8697 15.5999C22.8697 15.4796 22.8099 15.43 22.6796 15.43H10.5799C10.4301 15.43 10.3898 15.4796 10.3898 15.62V17.3999C10.3898 17.6296 10.3898 17.6296 10.6295 17.6296H16.5898ZM22.1907 13.3499C22.208 13.3045 22.208 13.2548 22.1907 13.2102C22.0892 12.9891 21.9689 12.7782 21.8293 12.5802C21.619 12.2418 21.3713 11.93 21.0891 11.6499C20.9559 11.4807 20.8018 11.3288 20.629 11.1999C19.7636 10.4633 18.7347 9.94206 17.6287 9.67998C17.0707 9.5547 16.5005 9.49494 15.9288 9.49998H10.559C10.4092 9.49998 10.3891 9.55974 10.3891 9.69006V13.2397C10.3891 13.3895 10.3891 13.4298 10.5791 13.4298H22.1187C22.1187 13.4298 22.2188 13.4096 22.2389 13.3499H22.19H22.1907ZM22.1907 19.7097C22.0208 19.691 21.8494 19.691 21.6795 19.7097H10.5899C10.4402 19.7097 10.3898 19.7097 10.3898 19.9098V23.3803C10.3898 23.5401 10.3898 23.5804 10.5899 23.5804H15.7099C15.9547 23.5992 16.1995 23.5819 16.4393 23.5308C17.1823 23.4775 17.9131 23.3162 18.6101 23.0505C18.8635 22.9627 19.1083 22.8482 19.3395 22.7107H19.4093C20.6096 22.0864 21.5844 21.1058 22.1993 19.9019C22.1993 19.9019 22.2692 19.7507 22.1907 19.7111V19.7097ZM8.38024 25.3797V25.32V22.99V22.2002V19.8501C8.38024 19.7198 8.38024 19.7003 8.22039 19.7003H6.05029C5.93005 19.7003 5.88037 19.7003 5.88037 19.5405V17.6404H8.20023C8.32984 17.6404 8.38024 17.6404 8.38024 17.4705V15.5905C8.38024 15.4703 8.38024 15.4408 8.22039 15.4408H6.05029C5.93005 15.4408 5.88037 15.4408 5.88037 15.2809V13.5212C5.88037 13.4111 5.88037 13.3815 6.04021 13.3815H8.19015C8.33992 13.3815 8.38024 13.3815 8.38024 13.1915V7.80148C8.38024 7.64164 8.38024 7.60132 8.5804 7.60132H16.08C16.6243 7.62292 17.165 7.68268 17.7 7.78132C18.8023 7.98508 19.8615 8.37893 20.8299 8.94125C21.4721 9.31926 22.0633 9.77574 22.5896 10.3013C22.9856 10.7125 23.3427 11.1574 23.6595 11.6312C23.9742 12.1114 24.2355 12.6248 24.4407 13.1612C24.4659 13.3009 24.5998 13.3952 24.7395 13.3715H26.5295C26.7591 13.3715 26.7591 13.3715 26.7692 13.5918V15.232C26.7692 15.3918 26.7095 15.4321 26.5489 15.4321H25.1686C25.029 15.4321 24.9886 15.4321 24.9987 15.6121C25.0534 16.2212 25.0534 16.8325 24.9987 17.4417C24.9987 17.6116 24.9987 17.6317 25.1895 17.6317H26.7685C26.8383 17.7217 26.7685 17.8117 26.7685 17.9025C26.7786 18.0184 26.7786 18.1357 26.7685 18.2517V19.462C26.7685 19.6319 26.7188 19.6823 26.5683 19.6823H24.6783C24.5466 19.6571 24.4184 19.7414 24.3882 19.8724C23.9382 21.0424 23.2181 22.0915 22.2879 22.9324C21.9481 23.2384 21.5909 23.5264 21.218 23.7921C20.8176 24.0225 20.4281 24.2623 20.0177 24.4524C19.2624 24.7922 18.4704 25.0428 17.6575 25.2019C16.8857 25.3401 16.103 25.4028 15.3175 25.392H8.37736V25.3819L8.38024 25.3797Z" fill="#FEFEFD"/>
</g>
<defs>
<clipPath id="clip0_1209_8085">
<rect width="32" height="32" fill="white" transform="translate(0 0.5)"/>
</clipPath>
</defs>
</svg>

<svg xmlns="http://www.w3.org/2000/svg" width="32" height="33" fill="none"><g clip-path="url(#a)"><path fill="#F5AC37" d="M16 .5a16 16 0 1 1 0 32 16 16 0 0 1 0-32Z"/><path fill="#FEFEFD" d="M16.59 17.63h6.08c.13 0 .19 0 .2-.17.05-.62.05-1.24 0-1.86 0-.12-.06-.17-.19-.17h-12.1c-.15 0-.19.05-.19.19v1.78c0 .23 0 .23.24.23h5.96Zm5.6-4.28a.2.2 0 0 0 0-.14c-.1-.22-.22-.43-.36-.63a5.1 5.1 0 0 0-.74-.93 7.19 7.19 0 0 0-5.16-2.15h-5.37c-.15 0-.17.06-.17.19v3.55c0 .15 0 .19.19.19h11.54s.1-.02.12-.08h-.05Zm0 6.36a2.34 2.34 0 0 0-.51 0H10.59c-.15 0-.2 0-.2.2v3.47c0 .16 0 .2.2.2h5.12c.24.02.49 0 .73-.05a7.62 7.62 0 0 0 2.9-.82h.07a6.5 6.5 0 0 0 2.79-2.8s.07-.16 0-.2ZM8.38 25.38v-5.53c0-.13 0-.15-.16-.15H6.05c-.12 0-.17 0-.17-.16v-1.9H8.2c.13 0 .18 0 .18-.17V15.6c0-.12 0-.15-.16-.15H6.05c-.12 0-.17 0-.17-.16v-1.76c0-.1 0-.14.16-.14h2.15c.15 0 .19 0 .19-.19V7.8c0-.16 0-.2.2-.2h7.5a9.78 9.78 0 0 1 4.75 1.34 8.82 8.82 0 0 1 2.83 2.7c.31.47.58.98.78 1.52.03.14.16.24.3.21h1.79c.23 0 .23 0 .24.22v1.64c0 .16-.06.2-.22.2h-1.38c-.14 0-.18 0-.17.18.05.61.05 1.22 0 1.83 0 .17 0 .2.19.2h1.58c.07.08 0 .17 0 .26v1.56c0 .17-.05.22-.2.22h-1.9a.25.25 0 0 0-.28.2 8 8 0 0 1-2.1 3.05c-.34.3-.7.6-1.07.86-.4.23-.8.47-1.2.66a10.81 10.81 0 0 1-4.7.94H8.38v-.01Z"/></g><defs><clipPath id="a"><path fill="#fff" d="M0 .5h32v32H0z"/></clipPath></defs></svg>
